MicroOS/light-inline.svg

<svg xmlns="http://www.w3.org/2000/svg" style="fill:#ffffff" width="200" height="44" preserveAspectRatio="xMidYMid meet" viewBox="0 0 200 44">
<path d="M 91.753906 8.1660156 C 90.55924 8.1660156 89.626953 8.9498646 89.626953 10.144531 C 89.626953 11.301865 90.55924 12.123047 91.753906 12.123047 C 92.948573 12.123047 93.882812 11.301865 93.882812 10.144531 C 93.882812 8.9498646 92.948573 8.1660156 91.753906 8.1660156 z M 158.58203 9.0605469 C 152.42203 9.0605469 148.12891 13.802578 148.12891 21.642578 C 148.12891 29.519911 152.42203 34.447266 158.58203 34.447266 C 164.74203 34.447266 169.07227 29.519911 169.07227 21.642578 C 169.07227 13.839912 164.74203 9.0605469 158.58203 9.0605469 z M 181.43164 9.0605469 C 176.98897 9.0605469 173.74219 11.823307 173.74219 15.556641 C 173.74219 19.140641 176.39236 20.896521 178.70703 21.867188 L 182.2168 23.396484 C 184.53146 24.441818 186.28516 25.227182 186.28516 27.728516 C 186.28516 30.117849 184.38254 31.722656 181.17188 31.722656 C 178.63321 31.722656 176.16873 30.491443 174.41406 28.662109 L 172.54688 30.826172 C 174.67487 33.028838 177.7001 34.447266 181.13477 34.447266 C 186.28677 34.447266 189.45898 31.349463 189.45898 27.466797 C 189.45898 23.845464 187.25726 22.165594 184.41992 20.933594 L 180.94727 19.439453 C 179.00593 18.61812 176.87695 17.723094 176.87695 15.371094 C 176.87695 13.168427 178.70631 11.787109 181.43164 11.787109 C 183.70897 11.787109 185.50276 12.682896 186.99609 14.101562 L 188.67578 12.085938 C 186.92111 10.293938 184.34364 9.0605469 181.43164 9.0605469 z M 63.359375 9.5097656 L 63.359375 34 L 66.160156 34 L 66.160156 20.523438 C 66.160156 18.358104 65.936443 15.44463 65.787109 13.279297 L 65.935547 13.279297 L 67.876953 18.841797 L 72.505859 31.535156 L 74.560547 31.535156 L 79.189453 18.841797 L 81.130859 13.279297 L 81.279297 13.279297 C 81.129964 15.44463 80.869141 18.358104 80.869141 20.523438 L 80.869141 34 L 83.78125 34 L 83.78125 9.5097656 L 80.009766 9.5097656 L 75.380859 22.576172 C 74.783526 24.256172 74.298505 26.011406 73.701172 27.691406 L 73.552734 27.691406 C 72.955401 26.011406 72.394208 24.256172 71.796875 22.576172 L 67.09375 9.5097656 L 63.359375 9.5097656 z M 158.58203 11.787109 C 162.95003 11.787109 165.82422 15.557245 165.82422 21.642578 C 165.82422 27.765245 162.95003 31.722656 158.58203 31.722656 C 154.21403 31.722656 151.33984 27.765245 151.33984 21.642578 C 151.33984 15.557245 154.21403 11.787109 158.58203 11.787109 z M 106.76562 15.408203 C 102.09896 15.408203 98.029297 18.879511 98.029297 24.964844 C 98.029297 30.97551 101.72502 34.447266 106.54102 34.447266 C 108.70635 34.447266 110.75968 33.588812 112.40234 32.132812 L 111.05859 30.080078 C 109.93859 31.088078 108.48273 31.910156 106.80273 31.910156 C 103.48007 31.910156 101.20313 29.108844 101.20312 24.964844 C 101.20312 20.783511 103.59162 17.947266 106.87695 17.947266 C 108.33295 17.947266 109.45467 18.619401 110.5 19.552734 L 112.06641 17.535156 C 110.79707 16.377823 109.15496 15.408203 106.76562 15.408203 z M 124.42773 15.408203 C 122.3744 15.408203 120.50739 16.863292 119.27539 19.140625 L 119.16406 19.140625 L 118.90234 15.855469 L 116.36328 15.855469 L 116.36328 34 L 119.42383 34 L 119.42383 22.351562 C 120.65583 19.290229 122.48691 18.169922 124.01758 18.169922 C 124.76424 18.169922 125.17415 18.282083 125.77148 18.46875 L 126.36914 15.78125 C 125.77181 15.519917 125.21173 15.408203 124.42773 15.408203 z M 136.0332 15.408203 C 131.59054 15.408203 127.63477 18.879511 127.63477 24.964844 C 127.63477 30.97551 131.59054 34.447266 136.0332 34.447266 C 140.47587 34.447266 144.43359 30.97551 144.43359 24.964844 C 144.43359 18.879511 140.47587 15.408203 136.0332 15.408203 z M 90.185547 15.855469 L 90.185547 34 L 93.248047 34 L 93.248047 15.855469 L 90.185547 15.855469 z M 136.0332 17.947266 C 139.1692 17.947266 141.25977 20.783511 141.25977 24.964844 C 141.25977 29.108844 139.1692 31.910156 136.0332 31.910156 C 132.93454 31.910156 130.80664 29.108844 130.80664 24.964844 C 130.80664 20.783511 132.93454 17.947266 136.0332 17.947266 z " />
<path d="m 30.419939,7.9996 c -7.715404,0 -14,6.2846 -14,14 0,7.7154 6.284596,14 14,14 7.715403,0 14,-6.2846 14,-14 0,-7.7154 -6.284597,-14 -14,-14 z m 0,2.8 c 6.202171,0 11.2,4.998 11.2,11.2 0,6.20228 -4.997829,11.2 -11.2,11.2 -6.202171,0 -11.2,-4.99772 -11.2,-11.2 0,-6.202 4.997829,-11.2 11.2,-11.2 z" />
<path d="m 9.4199394,20.5996 a 1.40014,1.40014 0 1 0 0,2.8 h 8.3999996 a 1.40014,1.40014 0 1 0 0,-2.8 z" />
<path d="m 43.019939,20.5996 a 1.40014,1.40014 0 1 0 0,2.8 h 8.4 a 1.40014,1.40014 0 1 0 0,-2.8 z" />
<path d="m 30.419922,16.400391 c -3.076212,0 -5.59961,2.523397 -5.59961,5.599609 0,3.076212 2.523398,5.599609 5.59961,5.599609 3.076212,0 5.599609,-2.523397 5.599609,-5.599609 0,-3.076212 -2.523397,-5.599609 -5.599609,-5.599609 z m 0,2.798828 c 1.56298,0 2.800781,1.237801 2.800781,2.800781 0,1.56298 -1.237801,2.800781 -2.800781,2.800781 -1.56298,0 -2.800781,-1.237801 -2.800781,-2.800781 0,-1.56298 1.237801,-2.800781 2.800781,-2.800781 z" />
</svg>

<svg fill="#ffffff" version="1.1" viewBox="0 0 200 44" xmlns="http://www.w3.org/2000/svg">
 <path d="m91.754 8.166c-1.1947 0-2.127 0.78385-2.127 1.9785 0 1.1573 0.93229 1.9785 2.127 1.9785 1.1947 0 2.1289-0.82118 2.1289-1.9785 0-1.1947-0.93424-1.9785-2.1289-1.9785zm66.828 0.89453c-6.16 0-10.453 4.742-10.453 12.582 0 7.8773 4.2931 12.805 10.453 12.805s10.49-4.9274 10.49-12.805c0-7.8027-4.3302-12.582-10.49-12.582zm22.85 0c-4.4427 0-7.6894 2.7628-7.6894 6.4961 0 3.584 2.6502 5.3399 4.9648 6.3105l3.5098 1.5293c2.3147 1.0453 4.0684 1.8307 4.0684 4.332 0 2.3893-1.9026 3.9941-5.1133 3.9941-2.5387 0-5.0032-1.2312-6.7578-3.0605l-1.8672 2.1641c2.128 2.2027 5.1532 3.6211 8.5879 3.6211 5.152 0 8.3242-3.0978 8.3242-6.9805 0-3.6213-2.2017-5.3012-5.0391-6.5332l-3.4726-1.4941c-1.9413-0.82133-4.0703-1.7164-4.0703-4.0684 0-2.2027 1.8294-3.584 4.5547-3.584 2.2773 0 4.0711 0.89579 5.5644 2.3145l1.6797-2.0156c-1.7547-1.792-4.3321-3.0254-7.2441-3.0254zm-118.07 0.44922v24.49h2.8008v-13.477c0-2.1653-0.22371-5.0788-0.37305-7.2441h0.14844l1.9414 5.5625 4.6289 12.693h2.0547l4.6289-12.693 1.9414-5.5625h0.14844c-0.14933 2.1653-0.41016 5.0788-0.41016 7.2441v13.477h2.9121v-24.49h-3.7715l-4.6289 13.066c-0.59733 1.68-1.0824 3.4352-1.6797 5.1152h-0.14844c-0.59733-1.68-1.1585-3.4352-1.7559-5.1152l-4.7031-13.066h-3.7344zm95.223 2.2773c4.368 0 7.2422 3.7701 7.2422 9.8555 0 6.1227-2.8742 10.08-7.2422 10.08s-7.2422-3.9574-7.2422-10.08c0-6.0853 2.8742-9.8555 7.2422-9.8555zm-51.816 3.6211c-4.6667 0-8.7363 3.4713-8.7363 9.5566 0 6.0107 3.6957 9.4824 8.5117 9.4824 2.1653 0 4.2187-0.85845 5.8613-2.3145l-1.3438-2.0527c-1.12 1.008-2.5759 1.8301-4.2559 1.8301-3.3227 0-5.5996-2.8013-5.5996-6.9453 0-4.1813 2.3885-7.0176 5.6738-7.0176 1.456 0 2.5777 0.67214 3.623 1.6055l1.5664-2.0176c-1.2693-1.1573-2.9114-2.127-5.3008-2.127zm17.662 0c-2.0533 0-3.9203 1.4551-5.1523 3.7324h-0.11133l-0.26172-3.2852h-2.5391v18.145h3.0606v-11.648c1.232-3.0613 3.0631-4.1816 4.5938-4.1816 0.74666 0 1.1566 0.11216 1.7539 0.29883l0.59766-2.6875c-0.59733-0.26133-1.1574-0.37305-1.9414-0.37305zm11.605 0c-4.4427 0-8.3984 3.4713-8.3984 9.5566 0 6.0107 3.9558 9.4824 8.3984 9.4824 4.4427 0 8.4004-3.4718 8.4004-9.4824 0-6.0853-3.9577-9.5566-8.4004-9.5566zm-45.848 0.44727v18.145h3.0625v-18.145h-3.0625zm45.848 2.0918c3.136 0 5.2266 2.8362 5.2266 7.0176 0 4.144-2.0906 6.9453-5.2266 6.9453-3.0987 0-5.2266-2.8013-5.2266-6.9453 0-4.1813 2.1279-7.0176 5.2266-7.0176z"/>
 <path d="m30.42 7.9996c-7.7154 0-14 6.2846-14 14s6.2846 14 14 14c7.7154 0 14-6.2846 14-14s-6.2846-14-14-14zm0 2.8c6.2022 0 11.2 4.998 11.2 11.2 0 6.2023-4.9978 11.2-11.2 11.2s-11.2-4.9977-11.2-11.2c0-6.202 4.9978-11.2 11.2-11.2z"/>
 <path d="m9.4199 20.6a1.4001 1.4001 0 1 0 0 2.8h8.4a1.4001 1.4001 0 1 0 0-2.8z"/>
 <path d="m43.02 20.6a1.4001 1.4001 0 1 0 0 2.8h8.4a1.4001 1.4001 0 1 0 0-2.8z"/>
 <path d="m30.42 16.4c-3.0762 0-5.5996 2.5234-5.5996 5.5996s2.5234 5.5996 5.5996 5.5996 5.5996-2.5234 5.5996-5.5996-2.5234-5.5996-5.5996-5.5996zm0 2.7988c1.563 0 2.8008 1.2378 2.8008 2.8008s-1.2378 2.8008-2.8008 2.8008-2.8008-1.2378-2.8008-2.8008 1.2378-2.8008 2.8008-2.8008z"/>
</svg>
